X: 27342
T: Mist On The Mountain, The
R: waltz
M: 3/4
K: Aminor
E|:A3|A A/B/c/d/|e A>B|A G E/F/|G3|G>AB|BA>B|AGE|
c>Bc|d>cd|e>fg|BAG|A<e^c|d>=cB|A>GA|A2z:|e
|:e2e|e2e|d>eg|e>d B/A/|G2G|d2d|e2e|dcB|
c>Bc|d>cd|e>fg|BAG|A<e^c|d>=cB|A>GA|A2z:|

